docroot/themes/custom/transac/alshaya_victoria_secret/imgs/icons/current.svg

<?xml version="1.0" encoding="UTF-8"?>
<svg width="48px" height="48px" viewBox="0 0 48 48" version="1.1" xmlns="http://www.w3.org/2000/svg" xmlns:xlink="http://www.w3.org/1999/xlink">
    <!-- Generator: sketchtool 49.1 (51147) - http://www.bohemiancoding.com/sketch -->
    <title>EECF165E-CD9C-4DDD-8B71-7453871300D0</title>
    <desc>Created with sketchtool.</desc>
    <defs>
        <path d="M23,38.9671954 C15.5124918,38.4743646 9.52563544,32.4875082 9.03280455,25 L7,25 C6.44771525,25 6,24.5522847 6,24 C6,23.4477153 6.44771525,23 7,23 L9.03280455,23 C9.52563544,15.5124918 15.5124918,9.52563544 23,9.03280455 L23,7 C23,6.44771525 23.4477153,6 24,6 C24.5522847,6 25,6.44771525 25,7 L25,9.03280455 C32.4875082,9.52563544 38.4743646,15.5124918 38.9671954,23 L41,23 C41.5522847,23 42,23.4477153 42,24 C42,24.5522847 41.5522847,25 41,25 L38.9671954,25 C38.4743646,32.4875082 32.4875082,38.4743646 25,38.9671954 L25,41 C25,41.5522847 24.5522847,42 24,42 C23.4477153,42 23,41.5522847 23,41 L23,38.9671954 Z M23,36.9621104 L23,35 C23,34.4477153 23.4477153,34 24,34 C24.5522847,34 25,34.4477153 25,35 L25,36.9621104 C31.3824061,36.4765922 36.4765922,31.3824061 36.9621104,25 L35,25 C34.4477153,25 34,24.5522847 34,24 C34,23.4477153 34.4477153,23 35,23 L36.9621104,23 C36.4765922,16.6175939 31.3824061,11.5234078 25,11.0378896 L25,13 C25,13.5522847 24.5522847,14 24,14 C23.4477153,14 23,13.5522847 23,13 L23,11.0378896 C16.6175939,11.5234078 11.5234078,16.6175939 11.0378896,23 L13,23 C13.5522847,23 14,23.4477153 14,24 C14,24.5522847 13.5522847,25 13,25 L11.0378896,25 C11.5234078,31.3824061 16.6175939,36.4765922 23,36.9621104 Z M24,29 C21.2385763,29 19,26.7614237 19,24 C19,21.2385763 21.2385763,19 24,19 C26.7614237,19 29,21.2385763 29,24 C29,26.7614237 26.7614237,29 24,29 Z M24,27 C25.6568542,27 27,25.6568542 27,24 C27,22.3431458 25.6568542,21 24,21 C22.3431458,21 21,22.3431458 21,24 C21,25.6568542 22.3431458,27 24,27 Z" id="path-1"></path>
    </defs>
    <g id="Symbols" stroke="none" stroke-width="1" fill="none" fill-rule="evenodd">
        <g id="Style/Icons/UI/MyLocation">
            <g id="ic_mylocation">
                <rect id="Rectangle-Copy-8" x="0" y="0" width="48" height="48"></rect>
                <g id="Style/Color/White" fill="#FFFFFF">
                    <rect id="Rectangle-4-Copy-38" transform="translate(24.000000, 24.000000) rotate(-180.000000) translate(-24.000000, -24.000000) " x="0" y="0" width="48" height="48"></rect>
                </g>
                <mask id="mask-2" fill="white">
                    <use xlink:href="#path-1"></use>
                </mask>
                <use id="Combined-Shape" fill="#0ABB76" fill-rule="nonzero" xlink:href="#path-1"></use>
                <g id="Style/Color/VS-Primary-Black" mask="url(#mask-2)" fill="#232323">
                    <rect id="Rectangle-4-Copy-5" x="0" y="0" width="48" height="48"></rect>
                </g>
                <g id="Style/States/For-Primary-Shape/Hover" mask="url(#mask-2)" fill="#FFFFFF" fill-opacity="0.25">
                    <rect id="↳⚙️State" x="0" y="0" width="48" height="48"></rect>
                </g>
            </g>
        </g>
    </g>
</svg>

<svg xmlns="http://www.w3.org/2000/svg" xmlns:xlink="http://www.w3.org/1999/xlink" width="48" height="48" viewBox="0 0 48 48">
    <defs>
        <path id="a" d="M23 38.967C15.512 38.474 9.526 32.487 9.033 25H7a1 1 0 0 1 0-2h2.033C9.526 15.512 15.513 9.526 23 9.033V7a1 1 0 0 1 2 0v2.033c7.488.493 13.474 6.48 13.967 13.967H41a1 1 0 0 1 0 2h-2.033c-.493 7.488-6.48 13.474-13.967 13.967V41a1 1 0 0 1-2 0v-2.033zm0-2.005V35a1 1 0 0 1 2 0v1.962c6.382-.485 11.477-5.58 11.962-11.962H35a1 1 0 0 1 0-2h1.962c-.485-6.382-5.58-11.477-11.962-11.962V13a1 1 0 0 1-2 0v-1.962c-6.382.485-11.477 5.58-11.962 11.962H13a1 1 0 0 1 0 2h-1.962c.485 6.382 5.58 11.477 11.962 11.962zM24 29a5 5 0 1 1 0-10 5 5 0 0 1 0 10zm0-2a3 3 0 1 0 0-6 3 3 0 0 0 0 6z"/>
    </defs>
    <g fill="none" fill-rule="evenodd">
        <path d="M0 0h48v48H0z"/>
        <path fill="#FFF" d="M48 48H0V0h48z"/>
        <mask id="b" fill="#fff">
            <use xlink:href="#a"/>
        </mask>
        <use fill="#0ABB76" fill-rule="nonzero" xlink:href="#a"/>
        <g fill="#232323" mask="url(#b)">
            <path d="M0 0h48v48H0z"/>
        </g>
        <g fill="#FFF" fill-opacity=".25" mask="url(#b)">
            <path d="M0 0h48v48H0z"/>
        </g>
    </g>
</svg>
